X: 100260
M: 3/4
L: 1/8
K: D
[|\
vA6 | (^G4 B2) | A6- | A4 z2 |\
vA6 | (^G4 B2) | A6- | A4 z2 |\
f2 e2 d2 | c2 B2 A2 |
(G B3) vA2 | F4 z2 |\
vA6 | (^G4 B2) | A6- | A4 z2 |\
vb2 a2 g2 | f2 e2 d2 | (c f3) ve2 | {c}d6 H|:\
(.va2 z2 .a2) | (.a2 z2 .a2) | (a d'3) vc'2 | (b4 a2) |\
(g4 f2) | (e4 d2) |
(c d3) vB2 | (A4 a2) |\
(.a2 z2 .a2) | (.a2 z2 .a2) | (a d'3) vc'2 | (b4 a2) |\
(g4 f2) | (e4 d2) | (c f3) ve2 |[1 d4 (uA/B//c//d//e//f//g//) :|[2 d4 "_D.C."z2 |]


